X:15
M:6/8
L:1/8
K:G
| BAB GBd | egd edB | dBB GBG | dBA GED | 
| gag fed | BAB GED | gfe fdB | AFA B2d | 
faf dcd | edB ABd | gee dBB | AGE A3 :|| 

